usr/share/icons/biglinux-icons-material/scalable/apps/akregator.svg

<?xml version="1.0" encoding="UTF-8" standalone="no"?>
<svg
   width="24"
   height="24"
   viewBox="0 0 6.349875 6.349875"
   version="1.1"
   id="svg18133"
   sodipodi:docname="google-reader.svg"
   inkscape:version="1.2.2 (b0a8486541, 2022-12-01)"
   xmlns:inkscape="http://www.inkscape.org/namespaces/inkscape"
   xmlns:sodipodi="http://sodipodi.sourceforge.net/DTD/sodipodi-0.dtd"
   xmlns="http://www.w3.org/2000/svg"
   xmlns:svg="http://www.w3.org/2000/svg">
  <defs
     id="defs18137">
    <radialGradient
       fx="0"
       fy="0"
       cx="0"
       cy="0"
       r="1"
       gradientUnits="userSpaceOnUse"
       gradientTransform="matrix(0,16.500002,-16.500002,0,9.000005,0.75006)"
       spreadMethod="pad"
       id="radialGradient14942-0">
      <stop
         style="stop-opacity:1;stop-color:#ff9b68"
         offset="0"
         id="stop14938-3" />
      <stop
         style="stop-opacity:1;stop-color:#f25e0d"
         offset="1"
         id="stop14940-6" />
    </radialGradient>
    <linearGradient
       x1="0"
       y1="36.549999"
       x2="0"
       y2="10.12"
       gradientUnits="userSpaceOnUse"
       gradientTransform="matrix(0,-0.02434975,-0.02434975,0,1.0764529,0.54409604)"
       spreadMethod="pad"
       id="linearGradient14954">
      <stop
         style="stop-opacity:1;stop-color:#f7891b"
         offset="0"
         id="stop14950" />
      <stop
         style="stop-opacity:1;stop-color:#fbc969"
         offset="1"
         id="stop14952" />
    </linearGradient>
    <linearGradient
       x1="0"
       y1="37.922001"
       x2="0"
       y2="9.3520002"
       gradientUnits="userSpaceOnUse"
       gradientTransform="matrix(0,0.02434975,-0.02434975,0,1.0764529,17.455904)"
       spreadMethod="pad"
       id="linearGradient14960">
      <stop
         style="stop-opacity:1;stop-color:#f7881a"
         offset="0"
         id="stop14956" />
      <stop
         style="stop-opacity:1;stop-color:#fbc967"
         offset="1"
         id="stop14958" />
    </linearGradient>
    <linearGradient
       x1="0"
       y1="34"
       x2="0"
       y2="13.384"
       gradientUnits="userSpaceOnUse"
       gradientTransform="matrix(0.401771,0,0,0.401771,0.0224192,-0.511535)"
       spreadMethod="pad"
       id="linearGradient14978">
      <stop
         style="stop-opacity:1;stop-color:#ee6708"
         offset="0"
         id="stop14974" />
      <stop
         style="stop-opacity:1;stop-color:#f9aa2b"
         offset="1"
         id="stop14976" />
    </linearGradient>
    <linearGradient
       x1="0"
       y1="30.804001"
       x2="0"
       y2="17.09"
       gradientUnits="userSpaceOnUse"
       gradientTransform="matrix(0.401771,0,0,0.401771,0.0224192,-0.511535)"
       spreadMethod="pad"
       id="linearGradient14996">
      <stop
         style="stop-opacity:1;stop-color:#ef4e06"
         offset="0"
         id="stop14992" />
      <stop
         style="stop-opacity:1;stop-color:#f9841c"
         offset="1"
         id="stop14994" />
    </linearGradient>
    <linearGradient
       x1="22.263"
       y1="31.32"
       x2="22.365999"
       y2="15.89"
       gradientUnits="userSpaceOnUse"
       gradientTransform="matrix(0.401771,0,0,0.401771,0.0224192,-0.511535)"
       spreadMethod="pad"
       id="linearGradient15014">
      <stop
         style="stop-opacity:1;stop-color:#fed9a5"
         offset="0"
         id="stop15010" />
      <stop
         style="stop-opacity:1;stop-color:#fffdfb"
         offset="1"
         id="stop15012" />
    </linearGradient>
  </defs>
  <sodipodi:namedview
     id="namedview18135"
     pagecolor="#ffffff"
     bordercolor="#000000"
     borderopacity="0.25"
     inkscape:showpageshadow="2"
     inkscape:pageopacity="0.0"
     inkscape:pagecheckerboard="0"
     inkscape:deskcolor="#d1d1d1"
     showgrid="false"
     inkscape:zoom="18.73833"
     inkscape:cx="5.923687"
     inkscape:cy="15.556349"
     inkscape:window-width="2560"
     inkscape:window-height="1000"
     inkscape:window-x="1680"
     inkscape:window-y="0"
     inkscape:window-maximized="1"
     inkscape:current-layer="svg18133" />
  <g
     id="g14928"
     transform="matrix(0.35277082,0,0,0.35277082,-1.1961624e-4,-9.2306512e-6)">
    <g
       id="g14930">
      <g
         id="g14936">
        <path
           d="m 7.195,0.836 c 0.09,0 0.176,-0.012 0.258,-0.035 1.078,-0.071 2.156,-0.067 3.231,0.008 0.976,0.078 1.921,0.289 2.836,0.636 1.519,0.625 2.558,1.711 3.121,3.254 0.316,0.93 0.507,1.887 0.566,2.867 0.078,1.235 0.051,2.465 -0.086,3.696 -0.105,0.863 -0.328,1.691 -0.672,2.488 -0.637,1.383 -1.672,2.336 -3.101,2.859 C 12.191,17 11,17.207 9.773,17.227 8.398,17.301 7.035,17.195 5.684,16.918 3.203,16.367 1.668,14.852 1.09,12.375 0.844,11.262 0.73,10.133 0.754,8.992 0.727,7.777 0.855,6.582 1.141,5.402 1.75,3.09 3.219,1.656 5.547,1.102 6.09,0.969 6.641,0.879 7.195,0.836 Z"
           style="fill:url(#radialGradient14942-0);fill-rule:evenodd;stroke:none"
           id="path14944" />
      </g>
    </g>
  </g>
  <path
     d="m 1.6074671,4.413435 c 0,-0.097192 0.033598,-0.1791856 0.1011917,-0.24518 A 0.33597221,0.33597221 0 0 1 1.9554384,4.0670638 c 0.095192,0 0.1755854,0.033601 0.24158,0.1011912 C 2.2646124,4.234247 2.29821,4.316243 2.29821,4.413835 A 0.33197253,0.33197253 0 0 1 2.1970184,4.657415 0.3287728,0.3287728 0 0 1 1.9554384,4.7566062 0.33877197,0.33877197 0 0 1 1.7086588,4.657415 0.32837284,0.32837284 0 0 1 1.6074671,4.413435 M 1.5874687,2.8487647 V 3.4251166 A 1.3366895,1.3366895 0 0 1 2.9221583,4.7622062 H 3.5009105 A 1.9142417,1.9142417 0 0 0 1.5874687,2.8487647 Z m 8e-4,-1.261096 V 2.2248159 A 2.5365901,2.5365901 0 0 1 4.122459,4.7614061 H 4.7624062 A 3.1753373,3.1753373 0 0 0 1.5882687,1.5876687 Z"
     fill="#ffffff"
     font-family="'Bitstream Vera Serif'"
     font-size="13.59px"
     font-weight="700"
     overflow="visible"
     id="path18783"
     style="stroke-width:0.399968" />
</svg>

<svg xmlns="http://www.w3.org/2000/svg" width="24" height="24" viewBox="0 0 6.35 6.35"><defs><radialGradient id="a" cx="0" cy="0" r="1" fx="0" fy="0" gradientTransform="matrix(0 16.5 -16.5 0 9 .75)" gradientUnits="userSpaceOnUse" spreadMethod="pad"><stop offset="0" style="stop-opacity:1;stop-color:#ff9b68"/><stop offset="1" style="stop-opacity:1;stop-color:#f25e0d"/></radialGradient></defs><path d="M7.195.836c.09 0 .176-.012.258-.035a23.86 23.86 0 0 1 3.231.008 10.26 10.26 0 0 1 2.836.636c1.519.625 2.558 1.711 3.121 3.254.316.93.507 1.887.566 2.867a21.227 21.227 0 0 1-.086 3.696 8.976 8.976 0 0 1-.672 2.488c-.637 1.383-1.672 2.336-3.101 2.859a11.693 11.693 0 0 1-3.575.618 15.998 15.998 0 0 1-4.089-.309c-2.481-.551-4.016-2.066-4.594-4.543a14.244 14.244 0 0 1-.336-3.383c-.027-1.215.101-2.41.387-3.59.609-2.312 2.078-3.746 4.406-4.3A10.27 10.27 0 0 1 7.195.836Z" style="fill:url(#a);fill-rule:evenodd;stroke:none" transform="scale(.35277)"/><path fill="#fff" d="M1.607 4.413a.33.33 0 0 1 .102-.245.336.336 0 0 1 .246-.1c.096 0 .176.033.242.1a.33.33 0 0 1 .101.246.332.332 0 0 1-.101.243.329.329 0 0 1-.242.1.339.339 0 0 1-.246-.1.328.328 0 0 1-.102-.244m-.02-1.564v.576a1.337 1.337 0 0 1 1.335 1.337h.579A1.914 1.914 0 0 0 1.587 2.85Zm.001-1.261v.637A2.537 2.537 0 0 1 4.122 4.76h.64a3.175 3.175 0 0 0-3.174-3.173Z" font-family="'Bitstream Vera Serif'" font-size="13.59" font-weight="700" overflow="visible" style="stroke-width:.399968"/></svg>
